svgs/solid/rectangle-history-circle-user.svg

<svg xmlns="http://www.w3.org/2000/svg" viewBox="0 0 640 512"><!--! Font Awesome Pro 6.2.0 by @fontawesome - https://fontawesome.com License - https://fontawesome.com/license (Commercial License) Copyright 2022 Fonticons, Inc. --><path d="M320 368c0 59.5 29.5 112.1 74.8 144L64 512c-35.3 0-64-28.7-64-64V224c0-35.3 28.7-64 64-64l384 0c23.8 0 44.5 12.9 55.5 32.2c-2.5-.1-5-.2-7.5-.2c-97.2 0-176 78.8-176 176zM440 80c13.3 0 24 10.7 24 24s-10.7 24-24 24L72 128c-13.3 0-24-10.7-24-24s10.7-24 24-24l368 0zM392 0c13.3 0 24 10.7 24 24s-10.7 24-24 24L120 48c-13.3 0-24-10.7-24-24s10.7-24 24-24H392zM640 368c0 79.5-64.5 144-144 144s-144-64.5-144-144s64.5-144 144-144s144 64.5 144 144zm-66.3 80.7c-6.2-19-24-32.7-45.1-32.7H463.4c-21 0-38.9 13.7-45.1 32.7C438.5 468.1 465.8 480 496 480s57.5-11.9 77.7-31.3zM544 336c0-26.5-21.5-48-48-48s-48 21.5-48 48s21.5 48 48 48s48-21.5 48-48z"/></svg>

<svg xmlns="http://www.w3.org/2000/svg" viewBox="0 0 640 512"><!--! Font Awesome Pro 6.1.2 by @fontawesome - https://fontawesome.com License - https://fontawesome.com/license (Commercial License) Copyright 2022 Fonticons, Inc. --><path d="M320 368C320 427.5 349.5 480.1 394.8 512H64C28.65 512 0 483.3 0 448V224C0 188.7 28.65 160 64 160H448C471.8 160 492.5 172.9 503.5 192.2C501 192.1 498.5 192 496 192C398.8 192 320 270.8 320 368zM440 80C453.3 80 464 90.75 464 104C464 117.3 453.3 128 440 128H72C58.75 128 48 117.3 48 104C48 90.75 58.75 80 72 80H440zM392 0C405.3 0 416 10.75 416 24C416 37.25 405.3 48 392 48H120C106.7 48 96 37.25 96 24C96 10.75 106.7 0 120 0H392zM640 368C640 447.5 575.5 512 496 512C416.5 512 352 447.5 352 368C352 288.5 416.5 224 496 224C575.5 224 640 288.5 640 368zM528.6 416H463.4C442.4 416 424.5 429.7 418.3 448.7C438.5 468.1 465.8 480 496 480C526.2 480 553.5 468.1 573.7 448.7C567.5 429.7 549.6 416 528.6 416zM496 288C469.5 288 448 309.5 448 336C448 362.5 469.5 384 496 384C522.5 384 544 362.5 544 336C544 309.5 522.5 288 496 288z"/></svg>
